X:12
T:Big Bow Wow   
O:No 12  Page 4 William Clarke of Feltwell  MS 1858 
N:Flow instructions but no repeats given in MS.
N:Fine substituted for sign.
N:Rest added at bar 9 to give correct value.
I:abc2nwc
M:6/8
L:1/8
K:G
c|B2c d2=f|e2e d2c|B2c d2=f|e2e d2c|
B2c d2d|def g2e|dcB cBA|G2G G2:|
"^*"z|B2G GAB|c2c c3|c2G GAB|A2A A3|
B2G GAB|c2c c2e|dcB cBA|G2G G2|]


